packages/foundations/assets/icons/functional/images/devices/telephone_24_filled.svg

<svg xmlns="http://www.w3.org/2000/svg" width="20" height="20" fill="none"><path fill="#1A1C1F" fill-rule="evenodd" d="M5.54 2.352c-.849.228-1.667.881-2.311 1.843a5.2 5.2 0 0 0-.785 1.838c-.071.338-.079 1.08-.015 1.475.389 2.393 2.34 5.34 5.004 7.556 2.349 1.955 4.791 2.926 6.468 2.574 1.684-.354 3.28-1.721 3.649-3.126a2.14 2.14 0 0 0-.304-1.77c-.185-.26-1.778-1.836-1.963-1.941-.455-.26-.969-.267-1.483-.023-.186.089-.334.22-1.05.927l-.833.823-.284-.237a29 29 0 0 1-2.578-2.422C8.328 9.097 7.5 8.177 7.5 8.143c0-.013.357-.384.794-.825.446-.45.834-.871.885-.96.377-.658.303-1.375-.199-1.925-.69-.758-1.401-1.513-1.552-1.648a2.05 2.05 0 0 0-.857-.437c-.281-.06-.802-.058-1.031.004"/></svg>

<svg width="20" height="20" viewBox="0 0 20 20" fill="none" xmlns="http://www.w3.org/2000/svg"><path d="M5.540 2.352 C 4.691 2.580,3.873 3.233,3.229 4.195 C 2.845 4.768,2.581 5.386,2.444 6.033 C 2.373 6.371,2.365 7.113,2.429 7.508 C 2.818 9.901,4.769 12.848,7.433 15.064 C 9.782 17.019,12.224 17.990,13.901 17.638 C 15.585 17.284,17.181 15.917,17.550 14.512 C 17.711 13.898,17.598 13.237,17.246 12.742 C 17.061 12.482,15.468 10.906,15.283 10.801 C 14.828 10.541,14.314 10.534,13.800 10.778 C 13.614 10.867,13.466 10.998,12.750 11.705 L 11.917 12.528 11.633 12.291 C 10.661 11.477,9.858 10.724,9.055 9.869 C 8.328 9.097,7.500 8.177,7.500 8.143 C 7.500 8.130,7.857 7.759,8.294 7.318 C 8.740 6.868,9.128 6.447,9.179 6.358 C 9.556 5.700,9.482 4.983,8.980 4.433 C 8.290 3.675,7.579 2.920,7.428 2.785 C 7.208 2.587,6.858 2.409,6.571 2.348 C 6.290 2.288,5.769 2.290,5.540 2.352 " fill="#1A1C1F" stroke="none" fill-rule="evenodd"></path></svg>
